style/svgs/types/label.svg

<?xml version="1.0" encoding="UTF-8"?>
<svg width="100px" height="100px" viewBox="0 0 100 100" version="1.1" xmlns="http://www.w3.org/2000/svg" xmlns:xlink="http://www.w3.org/1999/xlink">
    <title>Artboard Copy 295</title>
    <g id="Artboard-Copy-295" stroke="none" stroke-width="1" fill="none" fill-rule="evenodd">
        <path d="M86.5504665,89 C91.0621996,89 94.4317218,87.8914539 96.6590331,85.6743618 C98.8863444,83.4572696 100,80.1316314 100,75.697447 L100,23.302553 C100,18.8683686 98.8863444,15.5427304 96.6590331,13.3256382 C94.4317218,11.1085461 91.0621996,10 86.5504665,10 L12.4495335,10 C7.96635567,10 4.60397229,11.1085461 2.36238338,13.3256382 C0.120794459,15.5427304 -1,18.8683686 -1,23.302553 L-1,75.697447 C-1,80.1316314 0.120794459,83.4572696 2.36238338,85.6743618 C4.60397229,87.8914539 7.96635567,89 12.4495335,89 L86.5504665,89 Z M86.4648007,82.0912548 L12.5351993,82.0912548 C10.3935539,82.0912548 8.75162567,81.5262538 7.60941476,80.396252 C6.46720385,79.2662502 5.89609839,77.5855513 5.89609839,75.3541554 L5.89609839,23.6458446 C5.89609839,21.4144487 6.46720385,19.7337498 7.60941476,18.603748 C8.75162567,17.4737462 10.3935539,16.9087452 12.5351993,16.9087452 L86.4648007,16.9087452 C88.5778909,16.9087452 90.2126802,17.4737462 91.3691688,18.603748 C92.5256573,19.7337498 93.1039016,21.4144487 93.1039016,23.6458446 L93.1039016,75.3541554 C93.1039016,77.5855513 92.5256573,79.2662502 91.3691688,80.396252 C90.2126802,81.5262538 88.5778909,82.0912548 86.4648007,82.0912548 Z M57.0814249,31.584465 C57.8524173,31.584465 58.4877721,31.3269962 58.9874894,30.8120587 C59.4872067,30.2971211 59.7370653,29.667753 59.7370653,28.9239544 C59.7370653,28.1801557 59.4872067,27.5579395 58.9874894,27.0573058 C58.4877721,26.5566721 57.8524173,26.3063552 57.0814249,26.3063552 L20.8447837,26.3063552 C20.0737913,26.3063552 19.4384365,26.5566721 18.9387193,27.0573058 C18.439002,27.5579395 18.1891433,28.1801557 18.1891433,28.9239544 C18.1891433,29.667753 18.439002,30.2971211 18.9387193,30.8120587 C19.4384365,31.3269962 20.0737913,31.584465 20.8447837,31.584465 L57.0814249,31.584465 Z M82.0101781,59.5627376 C83.780605,59.5627376 85.1655358,59.0406482 86.1649703,57.9964693 C87.1644049,56.9522904 87.6641221,55.5433641 87.6641221,53.7696904 L87.6641221,45.0586638 C87.6641221,43.28499 87.1644049,41.8760637 86.1649703,40.8318848 C85.1655358,39.787706 83.780605,39.2656165 82.0101781,39.2656165 L17.0326548,39.2656165 C15.2622279,39.2656165 13.8772971,39.787706 12.8778626,40.8318848 C11.878428,41.8760637 11.3787108,43.28499 11.3787108,45.0586638 L11.3787108,53.7696904 C11.3787108,55.5433641 11.878428,56.9522904 12.8778626,57.9964693 C13.8772971,59.0406482 15.2622279,59.5627376 17.0326548,59.5627376 L82.0101781,59.5627376 Z M41.961408,52.0961434 L20.8876166,52.0961434 C20.088069,52.0961434 19.4384365,51.8386746 18.9387193,51.3237371 C18.439002,50.8087996 18.1891433,50.1651276 18.1891433,49.3927213 C18.1891433,48.6775303 18.439002,48.069618 18.9387193,47.5689842 C19.4384365,47.0683505 20.088069,46.8180337 20.8876166,46.8180337 L41.961408,46.8180337 C42.7324003,46.8180337 43.3677552,47.0683505 43.8674724,47.5689842 C44.3671897,48.069618 44.6170483,48.6775303 44.6170483,49.3927213 C44.6170483,50.1651276 44.3671897,50.8087996 43.8674724,51.3237371 C43.3677552,51.8386746 42.7324003,52.0961434 41.961408,52.0961434 Z M57.0814249,72.5649104 C57.8524173,72.5649104 58.4877721,72.3217454 58.9874894,71.8354155 C59.4872067,71.3490856 59.7370653,70.7340214 59.7370653,69.9902227 C59.7370653,69.2178164 59.4872067,68.5741445 58.9874894,68.059207 C58.4877721,67.5442694 57.8524173,67.2868007 57.0814249,67.2868007 L20.8447837,67.2868007 C20.0737913,67.2868007 19.4384365,67.5442694 18.9387193,68.059207 C18.439002,68.5741445 18.1891433,69.2178164 18.1891433,69.9902227 C18.1891433,70.7340214 18.439002,71.3490856 18.9387193,71.8354155 C19.4384365,72.3217454 20.0737913,72.5649104 20.8447837,72.5649104 L57.0814249,72.5649104 Z" id="􀱢" fill="#3E3E3E" fill-rule="nonzero"></path>
    </g>
</svg>

<svg width="100" height="100" xmlns="http://www.w3.org/2000/svg"><path d="M86.55 89c4.512 0 7.882-1.109 10.109-3.326 2.227-2.217 3.341-5.542 3.341-9.977V23.303c0-4.435-1.114-7.76-3.341-9.977C94.432 11.109 91.062 10 86.55 10h-74.1c-4.484 0-7.846 1.109-10.088 3.326C.121 15.543-1 18.868-1 23.303v52.394c0 4.435 1.12 7.76 3.362 9.977C4.604 87.891 7.966 89 12.45 89h74.1Zm-.085-6.909h-73.93c-2.141 0-3.783-.565-4.926-1.695-1.142-1.13-1.713-2.81-1.713-5.042V23.646c0-2.232.571-3.912 1.713-5.042 1.143-1.13 2.785-1.695 4.926-1.695h73.93c2.113 0 3.748.565 4.904 1.695 1.157 1.13 1.735 2.81 1.735 5.042v51.708c0 2.232-.578 3.912-1.735 5.042-1.156 1.13-2.791 1.695-4.904 1.695ZM57.08 31.584c.771 0 1.407-.257 1.906-.772.5-.515.75-1.144.75-1.888s-.25-1.366-.75-1.867c-.5-.5-1.135-.75-1.906-.75H20.845c-.771 0-1.407.25-1.906.75-.5.5-.75 1.123-.75 1.867s.25 1.373.75 1.888c.5.515 1.135.772 1.906.772H57.08Zm24.93 27.979c1.77 0 3.155-.522 4.154-1.567 1-1.044 1.5-2.453 1.5-4.226v-8.711c0-1.774-.5-3.183-1.5-4.227-1-1.044-2.384-1.566-4.155-1.566H17.033c-1.77 0-3.156.522-4.155 1.566-1 1.044-1.5 2.453-1.5 4.227v8.71c0 1.774.5 3.183 1.5 4.227 1 1.045 2.384 1.567 4.155 1.567H82.01Zm-40.05-7.467H20.888c-.8 0-1.45-.257-1.95-.772-.499-.515-.749-1.159-.749-1.931 0-.715.25-1.323.75-1.824.5-.5 1.15-.751 1.949-.751H41.96c.771 0 1.407.25 1.906.751.5.5.75 1.109.75 1.824 0 .772-.25 1.416-.75 1.93-.5.516-1.135.773-1.906.773Zm15.12 20.469c.771 0 1.407-.243 1.906-.73.5-.486.75-1.101.75-1.845 0-.772-.25-1.416-.75-1.93-.5-.516-1.135-.773-1.906-.773H20.845c-.771 0-1.407.257-1.906.772-.5.515-.75 1.159-.75 1.931 0 .744.25 1.36.75 1.845.5.487 1.135.73 1.906.73H57.08Z" fill="#3E3E3E" fill-rule="nonzero"/></svg>
